!!!COM: Corelli, Arcangelo
!!!OTL: 
!!!ONM: Opus 3, No. 8
!!!OMV: 1
!!!CDT: 1653/2/17/-1713/1/8/
!!!OCY: Italia
**kern	**kern	**kern	**kern
*clefC	*clefC	*clefG	*clefG
*k[]	*k[]	*k[]	*k[]
*C:	*C:	*C:	*C:
*M4/4	*M4/4	*M4/4	*M4/4
=1	=1	=1	=1
4.c	4.c	4.ee	4.gg
8c	8c	16cc	16ee
.	.	16dd	16ff
4C	4C	8.ee	8.gg
.	.	16ee	16gg
4F	4F	8.dd	8.ff
.	.	16cc	16ee
=2	=2	=2	=2
4.G	4.G	4.b	4.dd
8E	8E	8ee	8gg
8F	8F	16a	8aa
.	.	16b	.
8E	8E	8cc	8gg
8D	8D	8.cc	4ff
8GG	8GG	.	.
.	.	16b	.
=3	=3	=3	=3
8C	8C	8cc	4ee
8c	8c	8ee	.
8B	8B	8dd	8r
8BB	8BB	8g	8gg
8AA	8AA	8r	8ff
8A	8A	8cc	8f
8G	8G	8b	8r
8GG	8GG	8e	8ee
=4	=4	=4	=4
8FF	8FF	8r	8dd
8F	8F	8aa	8d
8E	8E	8gg	8r
8C	8C	8ee	8cc
8D	8D	4a	4.ff
8C	8C	.	.
8BB	8BB	[4dd	.
8GG	8GG	.	16gg
.	.	.	16ff
=5	=5	=5	=5
8C	8C	8dd]	4.ee
8c	8c	8g	.
8E	8E	4.cc	.
8F	8F	.	8aa
8G	8G	.	4.dd
8GG	8GG	16dd	.
.	.	16cc	.
8BB	8BB	[4b	.
8GG	8GG	.	16ee
.	.	.	16dd
=6	=6	=6	=6
8AA	8AA	8b]	4.cc
8A	8A	16cc	.
.	.	16b	.
8F#	8F#	4.a	.
8D	8D	.	16dd
.	.	.	16cc
8G	8G	.	4.b
8GG	8GG	8d	.
8BB	8BB	[4g	.
8GG	8GG	.	8dd
=7	=7	=7	=7
8C	8C	4g]	16ee
.	.	.	16dd
8AA	8AA	.	16cc
.	.	.	16b
8D	8D	4f#	4a
8DD	8DD	.	.
4GG	4GG	4g	4g
8r	8r	4r	4gg
8G	8G	.	.
=8	=8	=8	=8
4A	4A	4r	8cc
.	.	.	16dd
.	.	.	16ee
8r	8r	4dd	4.ff
8B	8B	.	.
4c	4c	8g	.
.	.	16a	16ee
.	.	16b	16dd
8r	8r	[4cc	8ee
8C	8C	.	16dd
.	.	.	16cc
=9	=9	=9	=9
4G	4G	8cc]	[4dd
.	.	16b	.
.	.	16a	.
4G#	4G#	4.b	16dd]
.	.	.	16ff
.	.	.	16ee
.	.	.	16dd
8A	8A	.	[4cc
8AA	8AA	16a	.
.	.	16g#	.
8C	8C	[4a	16cc]
.	.	.	16ee
8D	8D	.	16dd
.	.	.	16cc
=10	=10	=10	=10
8E	8E	4a]	8b
8D	8D	.	8cc
8E	8E	8.a	4b
8EE	8EE	.	.
.	.	16g#	.
4.AA	4.AA	4.a	8a
.	.	.	8ee
.	.	.	[4ff
8A	8A	8cc	.
=11	=11	=11	=11
4.B	4.B	4.dd	8ff]
.	.	.	16ee
.	.	.	16dd
.	.	.	4.gg
16A	16A	16cc	.
16G	16G	16b	.
4.c	4.c	4.ee	.
.	.	.	16ff#
.	.	.	16ee
.	.	.	[4aa
8A	8A	16ff#	.
.	.	16ee	.
=12	=12	=12	=12
8B	8B	8dd#	8aa]
8A	8A	8ee	8gg
8B	8B	8.ee	4ff#
8BB	8BB	.	.
.	.	16dd#	.
4E	4E	4ee	4ee
8c	8c	4r	8gg
8E	8E	.	8cc
=13	=13	=13	=13
4F	4F	4r	8dd
.	.	.	8cc
4E	4E	8gg	2r
.	.	8cc	.
4F	4F	8dd	.
.	.	8cc	.
8E	8E	8.ee	8.gg
8C	8C	.	.
.	.	16ee	16gg
=14	=14	=14	=14
4F	4F	8a	8aa
.	.	8b	8gg
4C	4C	8cc	8.ff
.	.	16dd	.
.	.	16cc	16ee
4G	4G	4b	8dd
.	.	.	8g
8e	8e	4r	[4gg
8E	8E	.	.
=15	=15	=15	=15
4A	4A	4.cc	8gg]
.	.	.	16ff
.	.	.	16ee
8d	8d	.	4.ff
8D	8D	16b	.
.	.	16a	.
4G	4G	4.b	.
.	.	.	16ee
.	.	.	16dd
8c	8c	.	[4ee
8C	8C	16a	.
.	.	16g	.
=16	=16	=16	=16
4F	4F	4a	8ee]
.	.	.	8a
4F#	4F#	4aa	8dd
.	.	.	16dd
.	.	.	16cc
8G	8G	4dd	8b
16G	16G	.	8g
16F	16F	.	.
8E	8E	8r	8r
8C	8C	8ee	8gg
=17	=17	=17	=17
8F	8F	8a	8aa
8G	8G	8b	8gg
8A	8A	2cc	8ff
8E	8E	.	8ee
8F	8F	.	2dd
8D	8D	.	.
8G	8G	4b	.
8GG	8GG	.	.
=18	=18	=18	=18
4C	4C	4cc	4cc
4BB	4BB	2r	8.gg
.	.	.	16b
4AA	4AA	.	[2cc
4GG	4GG	8.gg	.
.	.	16b	.
=19	=19	=19	=19
4FF	4FF	4cc	4cc]
4EE	4EE	4ee	8.ccc
.	.	.	16gg
4FF	4FF	8a	8aa
.	.	8b	8gg
4C	4C	[4cc	8ff
.	.	.	8ee
=20	=20	=20	=20
2GG	2GG	4cc]	2dd
.	.	4b	.
2C	2C	2cc	2cc
==	==	==	==
*-	*-	*-	*-
!!!RWG: This file only contains pitch and duration data.
!!!RWG: Transposing instruments are not transposed.
!!!RWG: Durations of rests and tied notes may be interpreted.
!!!RWG: Key is interpreted using the Humdrum key tool.
!!!SCA: 
!!!YOR: Chrysander Edition
!!!AGN: chamber
!!!AFT: stage1
!!!ENC: F. Bennion
!!!END: 1997/04/15
!!!AST: baroque
!!!YEC: Copyright 1994, Center for Computer Assisted Research in the Humanities
!!!YEM: Rights to all derivative electronic formats reserved.
!!!YEM: Refer to licensing agreement for further details.
!!!YEN: United States of America
!!!EED: W.B. Hewlett
!!!KEY: 93299578
!!!EMD: Converted from MuseData to Humdrum Aug 9, 1999, by Bret Aarden using muse2kern.
!!!VTS: 224767694
